images/6518404.svg

<?xml version="1.0" encoding="UTF-8"?>
<svg xmlns="http://www.w3.org/2000/svg" xmlns:xlink="http://www.w3.org/1999/xlink" width="300pt" height="300pt" viewBox="0 0 300 300" version="1.1">
<defs>
<g>
<symbol overflow="visible" id="glyph0-0">
<path style="stroke:none;" d="M 0.546875 1.9375 L 0.546875 -7.75 L 6.046875 -7.75 L 6.046875 1.9375 Z M 1.171875 1.328125 L 5.4375 1.328125 L 5.4375 -7.140625 L 1.171875 -7.140625 Z M 1.171875 1.328125 "/>
</symbol>
<symbol overflow="visible" id="glyph0-1">
<path style="stroke:none;" d="M 1.078125 -8.015625 L 2.546875 -8.015625 L 6.09375 -1.3125 L 6.09375 -8.015625 L 7.15625 -8.015625 L 7.15625 0 L 5.6875 0 L 2.125 -6.703125 L 2.125 0 L 1.078125 0 Z M 1.078125 -8.015625 "/>
</symbol>
<symbol overflow="visible" id="glyph0-2">
<path style="stroke:none;" d="M 4.328125 -7.28125 C 3.546875 -7.28125 2.921875 -6.984375 2.453125 -6.390625 C 1.992188 -5.804688 1.765625 -5.007812 1.765625 -4 C 1.765625 -2.988281 1.992188 -2.1875 2.453125 -1.59375 C 2.921875 -1.007812 3.546875 -0.71875 4.328125 -0.71875 C 5.117188 -0.71875 5.742188 -1.007812 6.203125 -1.59375 C 6.660156 -2.1875 6.890625 -2.988281 6.890625 -4 C 6.890625 -5.007812 6.660156 -5.804688 6.203125 -6.390625 C 5.742188 -6.984375 5.117188 -7.28125 4.328125 -7.28125 Z M 4.328125 -8.171875 C 5.453125 -8.171875 6.351562 -7.789062 7.03125 -7.03125 C 7.707031 -6.28125 8.046875 -5.269531 8.046875 -4 C 8.046875 -2.738281 7.707031 -1.726562 7.03125 -0.96875 C 6.351562 -0.21875 5.453125 0.15625 4.328125 0.15625 C 3.203125 0.15625 2.300781 -0.21875 1.625 -0.96875 C 0.957031 -1.71875 0.625 -2.726562 0.625 -4 C 0.625 -5.269531 0.957031 -6.28125 1.625 -7.03125 C 2.300781 -7.789062 3.203125 -8.171875 4.328125 -8.171875 Z M 4.328125 -8.171875 "/>
</symbol>
</g>
</defs>
<g id="surface47921">
<rect x="0" y="0" width="300" height="300" style="fill:rgb(100%,100%,100%);fill-opacity:1;stroke:none;"/>
<path style=" stroke:none;fill-rule:nonzero;fill:rgb(0%,0%,0%);fill-opacity:1;" d="M 75.855469 101.867188 L 47.203125 97.667969 L 47.496094 107.726562 Z M 75.855469 101.867188 "/>
<path style="fill:none;stroke-width:1.2;stroke-linecap:butt;stroke-linejoin:miter;stroke:rgb(0%,0%,0%);stroke-opacity:1;stroke-miterlimit:10;" d="M 75.855469 101.867188 L 89.390625 76.765625 "/>
<path style="fill:none;stroke-width:1.2;stroke-linecap:butt;stroke-linejoin:miter;stroke:rgb(0%,0%,0%);stroke-opacity:1;stroke-miterlimit:10;" d="M 90.828125 126.140625 L 75.855469 101.867188 "/>
<path style="fill:none;stroke-width:1.2;stroke-linecap:butt;stroke-linejoin:miter;stroke:rgb(0%,0%,0%);stroke-opacity:1;stroke-miterlimit:10;" d="M 89.390625 76.765625 L 117.898438 75.933594 "/>
<path style="fill:none;stroke-width:1.2;stroke-linecap:butt;stroke-linejoin:miter;stroke:rgb(0%,0%,0%);stroke-opacity:1;stroke-miterlimit:10;" d="M 117.898438 75.933594 L 132.871094 100.207031 "/>
<path style="fill:none;stroke-width:1.2;stroke-linecap:butt;stroke-linejoin:miter;stroke:rgb(0%,0%,0%);stroke-opacity:1;stroke-miterlimit:10;" d="M 132.871094 100.207031 L 126.105469 112.761719 "/>
<path style="fill:none;stroke-width:1.2;stroke-linecap:butt;stroke-linejoin:miter;stroke:rgb(0%,0%,100%);stroke-opacity:1;stroke-miterlimit:10;" d="M 126.105469 112.761719 L 119.335938 125.3125 "/>
<path style=" stroke:none;fill-rule:nonzero;fill:rgb(0%,0%,0%);fill-opacity:1;" d="M 132.871094 100.207031 L 161.527344 104.410156 L 161.234375 94.347656 Z M 132.871094 100.207031 "/>
<path style="fill:none;stroke-width:1.2;stroke-linecap:butt;stroke-linejoin:miter;stroke:rgb(0%,0%,100%);stroke-opacity:1;stroke-miterlimit:10;" d="M 119.335938 125.3125 L 105.082031 125.726562 "/>
<path style="fill:none;stroke-width:1.2;stroke-linecap:butt;stroke-linejoin:miter;stroke:rgb(0%,0%,0%);stroke-opacity:1;stroke-miterlimit:10;" d="M 105.082031 125.726562 L 90.828125 126.140625 "/>
<path style="fill:none;stroke-width:1.2;stroke-linecap:butt;stroke-linejoin:miter;stroke:rgb(0%,0%,100%);stroke-opacity:1;stroke-miterlimit:10;" d="M 119.335938 125.3125 L 126.824219 137.449219 "/>
<path style="fill:none;stroke-width:1.2;stroke-linecap:butt;stroke-linejoin:miter;stroke:rgb(0%,0%,0%);stroke-opacity:1;stroke-miterlimit:10;" d="M 126.824219 137.449219 L 134.308594 149.585938 "/>
<path style=" stroke:none;fill-rule:nonzero;fill:rgb(100%,100%,100%);fill-opacity:1;" d="M 115.335938 118.8125 L 123.335938 118.8125 L 123.335938 131.8125 L 115.335938 131.8125 Z M 115.335938 118.8125 "/>
<g style="fill:rgb(0%,0%,100%);fill-opacity:1;">
  <use xlink:href="#glyph0-1" x="115.335938" y="128.713867"/>
</g>
<path style="fill:none;stroke-width:1;stroke-linecap:butt;stroke-linejoin:miter;stroke:rgb(0%,0%,0%);stroke-opacity:1;stroke-miterlimit:10;" d="M 90.828125 126.140625 L 90.828125 126.140625 M 88.96875 128.496094 L 89.886719 128.988281 M 87.105469 130.847656 L 88.941406 131.835938 M 85.246094 133.199219 L 88 134.683594 M 83.382812 135.554688 L 87.054688 137.53125 M 81.523438 137.90625 L 86.113281 140.378906 M 79.664062 140.257812 L 85.167969 143.226562 M 77.800781 142.613281 L 84.226562 146.078125 M 75.941406 144.964844 L 83.28125 148.925781 M 74.078125 147.316406 L 82.339844 151.773438 M 72.863281 148.855469 L 81.722656 153.632812 "/>
<path style="fill:none;stroke-width:1.2;stroke-linecap:butt;stroke-linejoin:miter;stroke:rgb(0%,0%,0%);stroke-opacity:1;stroke-miterlimit:10;" d="M 77.292969 151.246094 L 48.785156 152.074219 "/>
<path style="fill:none;stroke-width:1.2;stroke-linecap:butt;stroke-linejoin:miter;stroke:rgb(0%,0%,0%);stroke-opacity:1;stroke-miterlimit:10;" d="M 74.636719 158.035156 L 51.832031 158.699219 "/>
<path style="fill:none;stroke-width:1.2;stroke-linecap:butt;stroke-linejoin:miter;stroke:rgb(0%,0%,0%);stroke-opacity:1;stroke-miterlimit:10;" d="M 92.265625 175.519531 L 77.292969 151.246094 "/>
<path style="fill:none;stroke-width:1.2;stroke-linecap:butt;stroke-linejoin:miter;stroke:rgb(0%,0%,0%);stroke-opacity:1;stroke-miterlimit:10;" d="M 48.785156 152.074219 L 35.25 177.179688 "/>
<path style="fill:none;stroke-width:1.2;stroke-linecap:butt;stroke-linejoin:miter;stroke:rgb(0%,0%,0%);stroke-opacity:1;stroke-miterlimit:10;" d="M 35.25 177.179688 L 50.222656 201.453125 "/>
<path style="fill:none;stroke-width:1.2;stroke-linecap:butt;stroke-linejoin:miter;stroke:rgb(0%,0%,0%);stroke-opacity:1;stroke-miterlimit:10;" d="M 42.457031 176.082031 L 54.4375 195.5 "/>
<path style="fill:none;stroke-width:1.2;stroke-linecap:butt;stroke-linejoin:miter;stroke:rgb(0%,0%,0%);stroke-opacity:1;stroke-miterlimit:10;" d="M 50.222656 201.453125 L 78.730469 200.621094 "/>
<path style="fill:none;stroke-width:1.2;stroke-linecap:butt;stroke-linejoin:miter;stroke:rgb(0%,0%,0%);stroke-opacity:1;stroke-miterlimit:10;" d="M 50.222656 201.453125 L 36.6875 226.554688 "/>
<path style="fill:none;stroke-width:1.2;stroke-linecap:butt;stroke-linejoin:miter;stroke:rgb(0%,0%,0%);stroke-opacity:1;stroke-miterlimit:10;" d="M 78.730469 200.621094 L 92.265625 175.519531 "/>
<path style="fill:none;stroke-width:1.2;stroke-linecap:butt;stroke-linejoin:miter;stroke:rgb(0%,0%,0%);stroke-opacity:1;stroke-miterlimit:10;" d="M 74.175781 194.925781 L 85.003906 174.84375 "/>
<path style="fill:none;stroke-width:1.2;stroke-linecap:butt;stroke-linejoin:miter;stroke:rgb(0%,0%,0%);stroke-opacity:1;stroke-miterlimit:10;" d="M 131.355469 147.992188 L 124.585938 160.542969 "/>
<path style="fill:none;stroke-width:1.2;stroke-linecap:butt;stroke-linejoin:miter;stroke:rgb(100%,0%,0%);stroke-opacity:1;stroke-miterlimit:10;" d="M 124.585938 160.542969 L 117.820312 173.097656 "/>
<path style="fill:none;stroke-width:1.2;stroke-linecap:butt;stroke-linejoin:miter;stroke:rgb(0%,0%,0%);stroke-opacity:1;stroke-miterlimit:10;" d="M 137.261719 151.175781 L 130.496094 163.730469 "/>
<path style="fill:none;stroke-width:1.2;stroke-linecap:butt;stroke-linejoin:miter;stroke:rgb(100%,0%,0%);stroke-opacity:1;stroke-miterlimit:10;" d="M 130.496094 163.730469 L 123.726562 176.28125 "/>
<path style="fill:none;stroke-width:1.2;stroke-linecap:butt;stroke-linejoin:miter;stroke:rgb(0%,0%,0%);stroke-opacity:1;stroke-miterlimit:10;" d="M 134.308594 149.585938 L 162.816406 148.753906 "/>
<path style=" stroke:none;fill-rule:nonzero;fill:rgb(100%,100%,100%);fill-opacity:1;" d="M 111.773438 168.1875 L 120.773438 168.1875 L 120.773438 181.1875 L 111.773438 181.1875 Z M 111.773438 168.1875 "/>
<g style="fill:rgb(100%,0%,0%);fill-opacity:1;">
  <use xlink:href="#glyph0-2" x="111.773438" y="178.088867"/>
</g>
<path style="fill:none;stroke-width:1.2;stroke-linecap:butt;stroke-linejoin:miter;stroke:rgb(0%,0%,0%);stroke-opacity:1;stroke-miterlimit:10;" d="M 162.816406 148.753906 L 177.789062 173.027344 "/>
<path style="fill:none;stroke-width:1.2;stroke-linecap:butt;stroke-linejoin:miter;stroke:rgb(0%,0%,0%);stroke-opacity:1;stroke-miterlimit:10;" d="M 170.027344 147.660156 L 182.003906 167.078125 "/>
<path style="fill:none;stroke-width:1.2;stroke-linecap:butt;stroke-linejoin:miter;stroke:rgb(0%,0%,0%);stroke-opacity:1;stroke-miterlimit:10;" d="M 176.351562 123.652344 L 162.816406 148.753906 "/>
<path style="fill:none;stroke-width:1.2;stroke-linecap:butt;stroke-linejoin:miter;stroke:rgb(0%,0%,0%);stroke-opacity:1;stroke-miterlimit:10;" d="M 177.789062 173.027344 L 206.296875 172.199219 "/>
<path style="fill:none;stroke-width:1.2;stroke-linecap:butt;stroke-linejoin:miter;stroke:rgb(0%,0%,0%);stroke-opacity:1;stroke-miterlimit:10;" d="M 206.296875 172.199219 L 219.832031 147.097656 "/>
<path style="fill:none;stroke-width:1.2;stroke-linecap:butt;stroke-linejoin:miter;stroke:rgb(0%,0%,0%);stroke-opacity:1;stroke-miterlimit:10;" d="M 201.742188 166.503906 L 212.570312 146.421875 "/>
<path style="fill:none;stroke-width:1.2;stroke-linecap:butt;stroke-linejoin:miter;stroke:rgb(0%,0%,0%);stroke-opacity:1;stroke-miterlimit:10;" d="M 219.832031 147.097656 L 204.859375 122.820312 "/>
<path style="fill:none;stroke-width:1.2;stroke-linecap:butt;stroke-linejoin:miter;stroke:rgb(0%,0%,0%);stroke-opacity:1;stroke-miterlimit:10;" d="M 219.832031 147.097656 L 248.339844 146.265625 "/>
<path style="fill:none;stroke-width:1.2;stroke-linecap:butt;stroke-linejoin:miter;stroke:rgb(0%,0%,0%);stroke-opacity:1;stroke-miterlimit:10;" d="M 204.859375 122.820312 L 176.351562 123.652344 "/>
<path style="fill:none;stroke-width:1.2;stroke-linecap:butt;stroke-linejoin:miter;stroke:rgb(0%,0%,0%);stroke-opacity:1;stroke-miterlimit:10;" d="M 202.203125 129.613281 L 179.398438 130.277344 "/>
<path style="fill:none;stroke-width:1.2;stroke-linecap:butt;stroke-linejoin:miter;stroke:rgb(0%,0%,0%);stroke-opacity:1;stroke-miterlimit:10;" d="M 248.339844 146.265625 L 255.828125 158.402344 "/>
<path style="fill:none;stroke-width:1.2;stroke-linecap:butt;stroke-linejoin:miter;stroke:rgb(0%,0%,100%);stroke-opacity:1;stroke-miterlimit:10;" d="M 255.828125 158.402344 L 263.3125 170.539062 "/>
<path style="fill:none;stroke-width:1.2;stroke-linecap:butt;stroke-linejoin:miter;stroke:rgb(0%,0%,0%);stroke-opacity:1;stroke-miterlimit:10;" d="M 244.125 152.214844 L 250.113281 161.925781 "/>
<path style="fill:none;stroke-width:1.2;stroke-linecap:butt;stroke-linejoin:miter;stroke:rgb(0%,0%,100%);stroke-opacity:1;stroke-miterlimit:10;" d="M 250.113281 161.925781 L 256.105469 171.636719 "/>
<path style="fill:none;stroke-width:1.2;stroke-linecap:butt;stroke-linejoin:miter;stroke:rgb(0%,0%,100%);stroke-opacity:1;stroke-miterlimit:10;" d="M 263.3125 170.539062 L 256.546875 183.089844 "/>
<path style="fill:none;stroke-width:1.2;stroke-linecap:butt;stroke-linejoin:miter;stroke:rgb(100%,0%,0%);stroke-opacity:1;stroke-miterlimit:10;" d="M 256.546875 183.089844 L 249.777344 195.644531 "/>
<path style=" stroke:none;fill-rule:nonzero;fill:rgb(100%,100%,100%);fill-opacity:1;" d="M 259.3125 164.039062 L 267.3125 164.039062 L 267.3125 177.039062 L 259.3125 177.039062 Z M 259.3125 164.039062 "/>
<g style="fill:rgb(0%,0%,100%);fill-opacity:1;">
  <use xlink:href="#glyph0-1" x="259.3125" y="173.94043"/>
</g>
<path style="fill:none;stroke-width:1.2;stroke-linecap:butt;stroke-linejoin:miter;stroke:rgb(100%,0%,0%);stroke-opacity:1;stroke-miterlimit:10;" d="M 249.777344 195.644531 L 257.265625 207.78125 "/>
<path style="fill:none;stroke-width:1.2;stroke-linecap:butt;stroke-linejoin:miter;stroke:rgb(0%,0%,0%);stroke-opacity:1;stroke-miterlimit:10;" d="M 257.265625 207.78125 L 264.75 219.917969 "/>
<path style=" stroke:none;fill-rule:nonzero;fill:rgb(100%,100%,100%);fill-opacity:1;" d="M 245.777344 189.144531 L 254.777344 189.144531 L 254.777344 202.144531 L 245.777344 202.144531 Z M 245.777344 189.144531 "/>
<g style="fill:rgb(100%,0%,0%);fill-opacity:1;">
  <use xlink:href="#glyph0-2" x="245.777344" y="199.045898"/>
</g>
<path style="fill:none;stroke-width:1.2;stroke-linecap:butt;stroke-linejoin:miter;stroke:rgb(0%,0%,0%);stroke-opacity:1;stroke-miterlimit:10;" d="M 159.035156 101.777344 L 164.457031 107.074219 "/>
<path style="fill:none;stroke-width:1.2;stroke-linecap:butt;stroke-linejoin:miter;stroke:rgb(100%,0%,0%);stroke-opacity:1;stroke-miterlimit:10;" d="M 164.457031 107.074219 L 169.878906 112.371094 "/>
<path style="fill:none;stroke-width:1.2;stroke-linecap:butt;stroke-linejoin:miter;stroke:rgb(0%,0%,0%);stroke-opacity:1;stroke-miterlimit:10;" d="M 163.722656 96.976562 L 169.144531 102.273438 "/>
<path style="fill:none;stroke-width:1.2;stroke-linecap:butt;stroke-linejoin:miter;stroke:rgb(100%,0%,0%);stroke-opacity:1;stroke-miterlimit:10;" d="M 169.144531 102.273438 L 174.566406 107.570312 "/>
<path style="fill:none;stroke-width:1.2;stroke-linecap:butt;stroke-linejoin:miter;stroke:rgb(0%,0%,0%);stroke-opacity:1;stroke-miterlimit:10;" d="M 161.378906 99.378906 L 168.148438 86.828125 "/>
<path style="fill:none;stroke-width:1.2;stroke-linecap:butt;stroke-linejoin:miter;stroke:rgb(100%,0%,0%);stroke-opacity:1;stroke-miterlimit:10;" d="M 168.148438 86.828125 L 174.914062 74.273438 "/>
<path style=" stroke:none;fill-rule:nonzero;fill:rgb(100%,100%,100%);fill-opacity:1;" d="M 168.222656 103.46875 L 177.222656 103.46875 L 177.222656 116.46875 L 168.222656 116.46875 Z M 168.222656 103.46875 "/>
<g style="fill:rgb(100%,0%,0%);fill-opacity:1;">
  <use xlink:href="#glyph0-2" x="168.222656" y="113.370117"/>
</g>
<path style="fill:none;stroke-width:1.2;stroke-linecap:butt;stroke-linejoin:miter;stroke:rgb(100%,0%,0%);stroke-opacity:1;stroke-miterlimit:10;" d="M 174.914062 74.273438 L 189.167969 73.859375 "/>
<path style="fill:none;stroke-width:1.2;stroke-linecap:butt;stroke-linejoin:miter;stroke:rgb(0%,0%,0%);stroke-opacity:1;stroke-miterlimit:10;" d="M 189.167969 73.859375 L 203.421875 73.445312 "/>
<path style=" stroke:none;fill-rule:nonzero;fill:rgb(100%,100%,100%);fill-opacity:1;" d="M 170.914062 67.773438 L 179.914062 67.773438 L 179.914062 80.773438 L 170.914062 80.773438 Z M 170.914062 67.773438 "/>
<g style="fill:rgb(100%,0%,0%);fill-opacity:1;">
  <use xlink:href="#glyph0-2" x="170.914062" y="77.674805"/>
</g>
</g>
</svg>

<svg xmlns="http://www.w3.org/2000/svg" xmlns:xlink="http://www.w3.org/1999/xlink" width="300pt" height="300pt" viewBox="0 0 300 300"><defs><symbol overflow="visible"><path d="M.547 1.938V-7.75h5.5v9.688zm.625-.61h4.266v-8.47H1.171zm0 0"/></symbol><symbol overflow="visible" id="a"><path d="M1.078-8.016h1.47l3.546 6.704v-6.704h1.062V0H5.688L2.124-6.703V0H1.078zm0 0"/></symbol><symbol overflow="visible" id="b"><path d="M4.328-7.28c-.78 0-1.406.296-1.875.89-.46.585-.687 1.382-.687 2.39 0 1.012.226 1.813.687 2.406.47.586 1.094.875 1.875.875.79 0 1.414-.288 1.875-.874.457-.593.688-1.394.688-2.406 0-1.008-.23-1.805-.687-2.39-.46-.594-1.086-.89-1.875-.89zm0-.892c1.125 0 2.024.383 2.703 1.14C7.708-6.28 8.048-5.27 8.048-4c0 1.262-.34 2.273-1.016 3.03C6.353-.22 5.454.157 4.33.157S2.3-.22 1.625-.97c-.668-.75-1-1.757-1-3.03 0-1.27.332-2.28 1-3.03.676-.76 1.578-1.142 2.703-1.142zm0 0"/></symbol></defs><g><path fill="#fff" d="M0 0h300v300H0z"/><path d="M75.855 101.867l-28.652-4.2.293 10.06zm0 0"/><path d="M75.855 101.867l13.536-25.1M90.828 126.14l-14.973-24.273M89.39 76.766l28.508-.832M117.898 75.934l14.973 24.273M132.87 100.207l-6.765 12.555" stroke-width="1.2" stroke="#000" stroke-miterlimit="10" fill="none"/><path d="M126.105 112.762l-6.77 12.55" stroke-width="1.2" stroke="#00f" stroke-miterlimit="10" fill="none"/><path d="M132.87 100.207l28.657 4.203-.293-10.062zm0 0"/><path d="M119.336 125.313l-14.254.414" stroke-width="1.2" stroke="#00f" stroke-miterlimit="10" fill="none"/><path d="M105.082 125.727l-14.254.414" stroke-width="1.2" stroke="#000" stroke-miterlimit="10" fill="none"/><path d="M119.336 125.313l7.488 12.136" stroke-width="1.2" stroke="#00f" stroke-miterlimit="10" fill="none"/><path d="M126.824 137.45l7.485 12.136" stroke-width="1.2" stroke="#000" stroke-miterlimit="10" fill="none"/><path d="M115.336 118.813h8v13h-8zm0 0" fill="#fff"/><use xlink:href="#a" x="115.336" y="128.714" fill="#00f"/><path d="M90.828 126.14m-1.86 2.356l.92.492m-2.783 1.86l1.836.988m-3.694 1.363L88 134.683m-4.617.87l3.672 1.977m-5.532.376l4.59 2.473m-6.45-.122l5.505 2.97m-7.367-.615l6.427 3.465m-8.286-1.113l7.34 3.96m-9.202-1.61l8.262 4.458m-9.477-2.918l8.86 4.778" stroke="#000" stroke-miterlimit="10" fill="none"/><path d="M77.293 151.246l-28.508.828M74.637 158.035l-22.805.664M92.266 175.52l-14.973-24.274M48.785 152.074L35.25 177.18M35.25 177.18l14.973 24.273M42.457 176.082l11.98 19.418M50.223 201.453l28.507-.832M50.223 201.453l-13.535 25.102M78.73 200.62l13.536-25.1M74.176 194.926l10.828-20.082M131.355 147.992l-6.77 12.55" stroke-width="1.2" stroke="#000" stroke-miterlimit="10" fill="none"/><path d="M124.586 160.543l-6.766 12.555" stroke-width="1.2" stroke="#f00" stroke-miterlimit="10" fill="none"/><path d="M137.262 151.176l-6.766 12.554" stroke-width="1.2" stroke="#000" stroke-miterlimit="10" fill="none"/><path d="M130.496 163.73l-6.77 12.55" stroke-width="1.2" stroke="#f00" stroke-miterlimit="10" fill="none"/><path d="M134.31 149.586l28.506-.832" stroke-width="1.2" stroke="#000" stroke-miterlimit="10" fill="none"/><path d="M111.773 168.188h9v13h-9zm0 0" fill="#fff"/><use xlink:href="#b" x="111.773" y="178.089" fill="#f00"/><path d="M162.816 148.754l14.973 24.273M170.027 147.66l11.977 19.418M176.352 123.652l-13.536 25.102M177.79 173.027l28.507-.828M206.297 172.2l13.535-25.102M201.742 166.504l10.828-20.082M219.832 147.098L204.86 122.82M219.832 147.098l28.508-.832M204.86 122.82l-28.508.832M202.203 129.613l-22.805.664M248.34 146.266l7.488 12.136" stroke-width="1.2" stroke="#000" stroke-miterlimit="10" fill="none"/><path d="M255.828 158.402l7.484 12.137" stroke-width="1.2" stroke="#00f" stroke-miterlimit="10" fill="none"/><path d="M244.125 152.215l5.988 9.71" stroke-width="1.2" stroke="#000" stroke-miterlimit="10" fill="none"/><path d="M250.113 161.926l5.992 9.71M263.313 170.54l-6.766 12.55" stroke-width="1.2" stroke="#00f" stroke-miterlimit="10" fill="none"/><path d="M256.547 183.09l-6.77 12.555" stroke-width="1.2" stroke="#f00" stroke-miterlimit="10" fill="none"/><path d="M259.313 164.04h8v13h-8zm0 0" fill="#fff"/><use xlink:href="#a" x="259.313" y="173.94" fill="#00f"/><path d="M249.777 195.645l7.49 12.136" stroke-width="1.2" stroke="#f00" stroke-miterlimit="10" fill="none"/><path d="M257.266 207.78l7.484 12.138" stroke-width="1.2" stroke="#000" stroke-miterlimit="10" fill="none"/><path d="M245.777 189.145h9v13h-9zm0 0" fill="#fff"/><use xlink:href="#b" x="245.777" y="199.046" fill="#f00"/><path d="M159.035 101.777l5.422 5.297" stroke-width="1.2" stroke="#000" stroke-miterlimit="10" fill="none"/><path d="M164.457 107.074l5.422 5.297" stroke-width="1.2" stroke="#f00" stroke-miterlimit="10" fill="none"/><path d="M163.723 96.977l5.422 5.296" stroke-width="1.2" stroke="#000" stroke-miterlimit="10" fill="none"/><path d="M169.145 102.273l5.42 5.297" stroke-width="1.2" stroke="#f00" stroke-miterlimit="10" fill="none"/><path d="M161.38 99.38l6.768-12.552" stroke-width="1.2" stroke="#000" stroke-miterlimit="10" fill="none"/><path d="M168.148 86.828l6.766-12.555" stroke-width="1.2" stroke="#f00" stroke-miterlimit="10" fill="none"/><path d="M168.223 103.47h9v13h-9zm0 0" fill="#fff"/><use xlink:href="#b" x="168.223" y="113.37" fill="#f00"/><path d="M174.914 74.273l14.254-.414" stroke-width="1.2" stroke="#f00" stroke-miterlimit="10" fill="none"/><path d="M189.168 73.86l14.254-.415" stroke-width="1.2" stroke="#000" stroke-miterlimit="10" fill="none"/><path d="M170.914 67.773h9v13h-9zm0 0" fill="#fff"/><use xlink:href="#b" x="170.914" y="77.675" fill="#f00"/></g></svg>
